src/assets/img/icons/scale-outline.svg

<svg enable-background="new 0 0 512 512" height="512" viewBox="0 0 512 512" width="512" xmlns="http://www.w3.org/2000/svg"><path d="m0 38.258c0 28.636 23.164 52.742 51.742 52.742h129.258v30.686c-83.818 7.571-151 78.765-151 165.314v195h-30v30h512v-30h-30v-195c0-86.535-67.166-157.741-151-165.314v-30.686h129.258c28.54 0 51.742-24.072 51.742-52.742v-38.258h-512zm452 248.742v195h-392v-195c0-74.991 61.01-136 136-136h120c74.99 0 136 61.009 136 136zm-151-166h-90v-30h90zm-271-91h452v8.258c0 12.327-9.957 22.742-21.742 22.742h-408.516c-11.785 0-21.742-10.415-21.742-22.742z"/><path d="m120 317c0 74.439 61.01 135 136 135 74.439 0 135-60.561 135-135s-60.561-135-135-135c-74.99 0-136 60.561-136 135zm241 0c0 57.897-47.103 105-105 105-58.448 0-106-47.103-106-105s47.552-105 106-105c57.897 0 105 47.103 105 105z"/><path d="m241 242v32.58c-17.459 6.192-30 22.865-30 42.42 0 24.813 20.187 45 45 45s45-20.187 45-45c0-19.555-12.541-36.228-30-42.42v-32.58zm15 90c-8.271 0-15-6.729-15-15s6.729-15 15-15 15 6.729 15 15-6.729 15-15 15z"/><path d="m391 422h30v30h-30z"/><path d="m90 422h30v30h-30z"/></svg>

<?xml version="1.0" encoding="iso-8859-1"?>
<!-- Generator: Adobe Illustrator 19.0.0, SVG Export Plug-In . SVG Version: 6.00 Build 0)  -->
<svg xmlns="http://www.w3.org/2000/svg" version="1.1" id="Layer_1" x="0px" y="0px" viewBox="0 0 512 512"
	 style="enable-background:new 0 0 512 512;" xml:space="preserve" width="512" height="512">
<g>
	<path d="M0,38.258C0,66.894,23.164,91,51.742,91H181v30.686C97.182,129.257,30,200.451,30,287v195H0v30h512v-30h-30V287   c0-86.535-67.166-157.741-151-165.314V91h129.258C488.798,91,512,66.928,512,38.258V0H0V38.258z M452,287v195H60V287   c0-74.991,61.01-136,136-136h120C390.99,151,452,212.009,452,287z M301,121h-90V91h90V121z M30,30h452v8.258   C482,50.585,472.043,61,460.258,61H51.742C39.957,61,30,50.585,30,38.258V30z"/>
	<path d="M120,317c0,74.439,61.01,135,136,135c74.439,0,135-60.561,135-135s-60.561-135-135-135C181.01,182,120,242.561,120,317z    M361,317c0,57.897-47.103,105-105,105c-58.448,0-106-47.103-106-105s47.552-105,106-105C313.897,212,361,259.103,361,317z"/>
	<path d="M241,242v32.58c-17.459,6.192-30,22.865-30,42.42c0,24.813,20.187,45,45,45s45-20.187,45-45   c0-19.555-12.541-36.228-30-42.42V242H241z M256,332c-8.271,0-15-6.729-15-15s6.729-15,15-15s15,6.729,15,15S264.271,332,256,332z"/>
	<rect x="391" y="422" width="30" height="30"/>
	<rect x="90" y="422" width="30" height="30"/>
</g>















</svg>
